resources/svg/regular/medal.svg

<svg xmlns="http://www.w3.org/2000/svg" fill="currentColor" stroke="none" viewBox="0 0 24 24"><path d="M12 22c3.859 0 7-3.141 7-7s-3.141-7-7-7c-3.86 0-7 3.141-7 7s3.14 7 7 7zm0-12c2.757 0 5 2.243 5 5s-2.243 5-5 5-5-2.243-5-5 2.243-5 5-5zm-1-8H7v5.518a8.957 8.957 0 0 1 4-1.459V2zm6 0h-4v4.059a8.957 8.957 0 0 1 4 1.459V2z"/><path d="m10.019 15.811-.468 2.726L12 17.25l2.449 1.287-.468-2.726 1.982-1.932-2.738-.398L12 11l-1.225 2.481-2.738.398z"/></svg>

<svg xmlns="http://www.w3.org/2000/svg" fill="currentColor" stroke="none" viewBox="0 0 24 24"><path d="M12 22c3.859 0 7-3.141 7-7s-3.141-7-7-7c-3.86 0-7 3.141-7 7S8.14 22 12 22zM12 10c2.757 0 5 2.243 5 5s-2.243 5-5 5-5-2.243-5-5S9.243 10 12 10zM11 2H7v5.518c1.169-.782 2.531-1.296 4-1.459V2zM17 2h-4v4.059c1.469.163 2.831.677 4 1.459V2z"/><path d="M10.019 15.811L9.551 18.537 12 17.25 14.449 18.537 13.981 15.811 15.963 13.879 13.225 13.481 12 11 10.775 13.481 8.037 13.879z"/></svg>
